X: 1
T:Isabelle Blackley  "CYMRU"
M:6/8
L:1/8
Q:80
C:D. MacLeod
S:Jig
K:HP
|: {g}ce{A}e{g}ea{g}a|
df{e}f{g}fed|
{g}ce{A}e{g}A{d}ce|  !
{g}dB{G}B{gBd}B2d| |
{g}ce{A}e{g}ea{g}a|
df{e}f{g}fed|  !
{g}ce{A}e{g}fed|
{g}c{d}A{e}A{GAG}A2:| |:
c|  !
{g}d2fafd|
{g}ce{A}egec|
{g}d2fafd|  !
{g}ec{G}A{GAG}A2c| |
{g}d2fafd|
{g}ce{A}egec|  !
{g}ce{A}e{g}fed|
{g}c{d}A{e}A{GAG}A2:| |
{g}df{e}f{g}Bf{e}f|  !
{g}df{e}f{g}Bf{e}f|
{g}ce{A}e{g}A{d}ce|
agaec{G}A| |  !
{g}df{e}f{g}ce{A}e|
{g}Bd{c}d{g}G{d}B{G}B|
{g}ce{A}e{g}fed|  !
{g}c{d}A{e}A{GAG}A2:| |
{g}ea{g}aefg|
{a}fed{g}ce{A}e|  !
{g}Bd{c}dGBd|
g{a}fgec{G}A| |
{g}ea{g}aefg|  !
{a}fed{g}ce{A}e|
{g}Bd{c}d{g}fed|
{g}c{d}A{e}A{GAG}A2:|  !
